images/plugins/scroll-effects/zoom-in-right.svg

<svg width="25" height="26" xmlns="http://www.w3.org/2000/svg">
  <g fill-rule="nonzero" fill="none">
    <path d="M22.8476005 1c-.0258054 0-.0516051.00076992-.0773589.00240149-.3026609.00903964-.5907223.13213592-.8064475.34461637l-5.1575127 5.16454042V4.59854192c-.002573-.65924658-.5363625-1.19303229-1.1956091-1.19560072-.6592452.00257041-1.1930325.53635554-1.1956055 1.19560072v4.80351603c.0026318.65922265.5363828 1.19297695 1.1956055 1.19561275h4.8035196c.6592499-.0025705 1.1930391-.5363629 1.1956055-1.19561275.0012438-.31833716-.124023-.62413-.3482428-.85010693-.2242198-.22597692-.5290255-.35362689-.8473627-.35486808h-1.9059358L23.66577 3.04893853c.2264772-.22527915.353812-.53154321.353812-.85098434 0-.31944112-.1273348-.62570519-.353812-.85098434-.2182849-.21607751-.5110983-.34025367-.8181695-.34696985zm-21.59825679.00240149c-.33344055-.0146326-.65791734.11023179-.8955317.34461637C.12733479 1.57229701 0 1.87856108 0 2.1980022c0 .31944113.12733479.6257052.35381202.85098435l5.15751269 5.1481444H3.60538937c-.31833713.00124126-.62314276.12889125-.84736252.35486817-.22421975.22597692-.34948651.53176972-.34824276.85010684.00256648.65924974.53635552 1.19304214 1.19560528 1.19561274h4.80351975c.65922256-.0026359 1.1929735-.5363902 1.19560528-1.19561274V4.59854192c-.00257306-.65924509-.53636018-1.19303018-1.19560528-1.19560072-.6592451.00257054-1.19303223.53635563-1.19560528 1.19560072v1.91296834L2.05579115 1.34696985c-.21572519-.21248046-.5037866-.33557673-.80644744-.34461637v.00004801zM3.60538937 15.4035273c-.66014116.0026257-1.19429622.5378084-1.19560528 1.1979533-.00124694.3183391.12401841.624135.34823851.8501146.22422009.2259795.52902756.3536311.84736677.3548724h1.90359105l-5.1551684 5.1457918C.12733479 23.1775385 0 23.4838026 0 23.8032437c0 .3194412.12733479.6257052.35381202.8509844.23761435.2343846.56209114.3592489.89553169.3446164.30266084-.0090397.59072225-.132136.80644744-.3446164l5.15751269-5.1645404v1.9129683c.00257305.6592451.53636018 1.1930302 1.19560528 1.1956007.6592451-.0025705 1.19303222-.5363556 1.19560528-1.1956007v-4.8011754c-.00134825-.6601365-.53547276-1.1953099-1.19560528-1.1979533H3.60538937zm12.00528293 0c-.6592227.0026837-1.1929737.536438-1.1956055 1.1956607v4.803468c.002573.6592452.5363603 1.1930303 1.1956055 1.1956007.6592452-.0025704 1.1930325-.5363555 1.1956055-1.1956007v-1.9129683l5.1575127 5.1645404c.2157252.2124804.5037866.3355767.8064475.3446164.3334406.0146326.6579176-.1102317.895532-.3446164.2264772-.2252792.353812-.5315432.353812-.8509844 0-.3194411-.1273348-.6257052-.353812-.8509843l-5.1575139-5.1481444h1.9059358c.3183372-.0012412.6231429-.1288912.8473627-.3548681.2242198-.2259769.3494866-.5317698.3482428-.8501069-.0025664-.6592499-.5363556-1.1930423-1.1956055-1.1956127h-4.8035196z" fill="#5C606B"/>
    <path d="M24.00979134 23.8378092c0-.0258055-.00076992-.0516052-.00240149-.077359-.00903964-.3026608-.13213592-.5907222-.34461637-.8064474l-5.16454038-5.1575127h1.9130163c.6592466-.0025731 1.1930323-.5363625 1.1956007-1.1956091-.0025704-.6592452-.5363555-1.1930325-1.1956007-1.1956056h-4.803516c-.6592227.0026318-1.192977.5363829-1.1956127 1.1956056v4.8035196c.0025704.6592498.5363628 1.193039 1.1956127 1.1956055.3183371.0012438.62413-.124023.8501069-.3482428.2259769-.2242198.3536269-.5290255.3548681-.8473627v-1.9059358l5.1481444 5.1575139c.2252792.2264772.53154322.353812.85098435.353812.31944112 0 .62570519-.1273348.85098434-.353812.2160775-.218285.34025367-.5110984.34696985-.8181695zm-.00240149-21.59825683c.01463259-.33344055-.11023179-.65791734-.34461637-.89553169-.22527915-.22647723-.53154322-.35381202-.85098434-.35381202-.31944113 0-.62570524.12733479-.85098434.35381202L16.8126604 6.5015334V4.595598c-.0012413-.3183371-.1288913-.6231427-.3548682-.84736248-.2259769-.22421976-.5317697-.34948652-.8501068-.34824276-.6592498.00256647-1.1930422.53635554-1.1956127 1.19560524v4.8035198c.0026358.6592225.5363901 1.1929735 1.1956127 1.1956053h4.803564c.6592451-.0025731 1.1930302-.5363602 1.1956007-1.1956053-.0025705-.6592451-.5363556-1.1930322-1.1956007-1.1956053h-1.9129683l5.16454039-5.15751269c.21248045-.21572519.33557673-.5037866.34461637-.80644744h-.00004801z" fill="#A9ACB1"/>
  </g>
</svg>

<?xml version="1.0" encoding="UTF-8"?>
<svg width="25px" height="26px" viewBox="0 0 25 26" version="1.1" xmlns="http://www.w3.org/2000/svg" xmlns:xlink="http://www.w3.org/1999/xlink">
    <title>93EF7BA0-FE55-41D1-B364-428D08322AC5</title>
    <g id="Themes" stroke="none" stroke-width="1" fill="none" fill-rule="evenodd">
        <g id="Animation_plugin" transform="translate(-1364.000000, -768.000000)" fill-rule="nonzero">
            <g id="Group-9" transform="translate(1364.000000, 768.000000)">
                <path d="M22.8476005,1 C22.8217951,1 22.7959954,1.00076992 22.7702416,1.00240149 C22.4675807,1.01144113 22.1795193,1.13453741 21.9637941,1.34701786 L16.8062814,6.51155828 L16.8062814,4.59854192 C16.8037084,3.93929534 16.2699189,3.40550963 15.6106723,3.4029412 C14.9514271,3.40551161 14.4176398,3.93929674 14.4150668,4.59854192 L14.4150668,9.40205795 C14.4176986,10.0612806 14.9514496,10.5950349 15.6106723,10.5976707 L20.4141919,10.5976707 C21.0734418,10.5951002 21.607231,10.0613078 21.6097974,9.40205795 C21.6110412,9.08372079 21.4857744,8.77792795 21.2615546,8.55195102 C21.0373348,8.3259741 20.7325291,8.19832413 20.4141919,8.19708294 L18.5082561,8.19708294 L23.66577,3.04893853 C23.8922472,2.82365938 24.019582,2.51739532 24.019582,2.19795419 C24.019582,1.87851307 23.8922472,1.572249 23.66577,1.34696985 C23.4474851,1.13089234 23.1546717,1.00671618 22.8476005,1 L22.8476005,1 Z M1.24934371,1.00240149 C0.915903162,0.987768894 0.591426369,1.11263328 0.353812018,1.34701786 C0.127334785,1.57229701 -4.54747351e-13,1.87856108 -4.54747351e-13,2.1980022 C-4.54747351e-13,2.51744333 0.127334785,2.8237074 0.353812018,3.04898655 L5.51132471,8.19713095 L3.60538937,8.19713095 C3.28705224,8.19837221 2.98224661,8.3260222 2.75802685,8.55199912 C2.5338071,8.77797604 2.40854034,9.08376884 2.40978409,9.40210596 C2.41235057,10.0613557 2.94613961,10.5951481 3.60538937,10.5977187 L8.40890912,10.5977187 C9.06813168,10.5950828 9.60188262,10.0613285 9.6045144,9.40210596 L9.6045144,4.59854192 C9.60194134,3.93929683 9.06815422,3.40551174 8.40890912,3.4029412 C7.74966402,3.40551174 7.21587689,3.93929683 7.21330384,4.59854192 L7.21330384,6.51151026 L2.05579115,1.34696985 C1.84006596,1.13448939 1.55200455,1.01139312 1.24934371,1.00235348 L1.24934371,1.00240149 Z M3.60538937,15.4035273 C2.94524821,15.406153 2.41109315,15.9413357 2.40978409,16.6014806 C2.40853715,16.9198197 2.5338025,17.2256156 2.7580226,17.4515952 C2.98224269,17.6775747 3.28705016,17.8052263 3.60538937,17.8064676 L5.50898042,17.8064676 L0.353812018,22.9522594 C0.127334785,23.1775385 -4.26325641e-13,23.4838026 -4.26325641e-13,23.8032437 C-4.26325641e-13,24.1226849 0.127334785,24.4289489 0.353812018,24.6542281 C0.591426369,24.8886127 0.915903162,25.013477 1.24934371,24.9988445 C1.55200455,24.9898048 1.84006596,24.8667085 2.05579115,24.6542281 L7.21330384,19.4896877 L7.21330384,21.402656 C7.21587689,22.0619011 7.74966402,22.5956862 8.40890912,22.5982567 C9.06815422,22.5956862 9.60194134,22.0619011 9.6045144,21.402656 L9.6045144,16.6014806 C9.60316615,15.9413441 9.06904164,15.4061707 8.40890912,15.4035273 L3.60538937,15.4035273 Z M15.6106723,15.4035273 C14.9514496,15.406211 14.4176986,15.9399653 14.4150668,16.599188 L14.4150668,21.402656 C14.4176398,22.0619012 14.9514271,22.5956863 15.6106723,22.5982567 C16.2699175,22.5956863 16.8037048,22.0619012 16.8062778,21.402656 L16.8062778,19.4896877 L21.9637905,24.6542281 C22.1795157,24.8667085 22.4675771,24.9898048 22.770238,24.9988445 C23.1036786,25.0134771 23.4281556,24.8886128 23.66577,24.6542281 C23.8922472,24.4289489 24.019582,24.1226849 24.019582,23.8032437 C24.019582,23.4838026 23.8922472,23.1775385 23.66577,22.9522594 L18.5082561,17.804115 L20.4141919,17.804115 C20.7325291,17.8028738 21.0373348,17.6752238 21.2615546,17.4492469 C21.4857744,17.22327 21.6110412,16.9174771 21.6097974,16.59914 C21.607231,15.9398901 21.0734418,15.4060977 20.4141919,15.4035273 L15.6106723,15.4035273 Z" id="Shape-Copy-2" fill="#5C606B"></path>
                <path d="M30.0487412,8.20114066 C30.0229357,8.20114066 29.997136,8.20191058 29.9713822,8.20354215 C29.6687214,8.21258179 29.38066,8.33567807 29.1649348,8.54815852 L24.0074221,13.7126989 L24.0074221,11.7996826 C24.004849,11.140436 23.4710596,10.6066503 22.811813,10.6040819 C22.1525678,10.6066523 21.6187805,11.1404374 21.6162074,11.7996826 L21.6162074,16.6031986 C21.6188392,17.2624213 22.1525903,17.7961756 22.811813,17.7988113 L27.6153326,17.7988113 C28.2745824,17.7962409 28.8083716,17.2624485 28.8109381,16.6031986 C28.8121819,16.2848615 28.6869151,15.9790686 28.4626953,15.7530917 C28.2384755,15.5271148 27.9336698,15.3994648 27.6153326,15.3982236 L25.7093968,15.3982236 L30.8669107,10.2500792 C31.0933879,10.0248 31.2207227,9.71853598 31.2207227,9.39909485 C31.2207227,9.07965373 31.0933879,8.77338966 30.8669107,8.54811051 C30.6486257,8.33203301 30.3558123,8.20785684 30.0487412,8.20114066 L30.0487412,8.20114066 Z M8.45048437,8.20354215 C8.11704382,8.18890956 7.79256703,8.31377394 7.55495268,8.54815852 C7.32847545,8.77343767 7.20114066,9.07970174 7.20114066,9.39914286 C7.20114066,9.71858399 7.32847545,10.0248481 7.55495268,10.2501272 L12.7124654,15.3982716 L10.80653,15.3982716 C10.4881929,15.3995129 10.1833873,15.5271629 9.95916752,15.7531398 C9.73494776,15.9791167 9.609681,16.2849095 9.61092476,16.6032466 C9.61349123,17.2624964 10.1472803,17.7962888 10.80653,17.7988593 L15.6100498,17.7988593 C16.2692723,17.7962235 16.8030233,17.2624692 16.8056551,16.6032466 L16.8056551,11.7996826 C16.803082,11.1404375 16.2692949,10.6066524 15.6100498,10.6040819 C14.9508047,10.6066524 14.4170176,11.1404375 14.4144445,11.7996826 L14.4144445,13.7126509 L9.25693181,8.54811051 C9.04120662,8.33563006 8.75314521,8.21253378 8.45048437,8.20349414 L8.45048437,8.20354215 Z" id="Shape-Copy-3" fill="#A9ACB1" transform="translate(19.210932, 13.000000) rotate(-270.000000) translate(-19.210932, -13.000000) "></path>
            </g>
        </g>
    </g>
</svg>
